!!!OTL: Der Wald.
!!!OTL-incipit: AUF DEM RASEN IM WALDE
!!!COM: M. Hauptmann
!!!ARE: Europa, Mitteleuropa, Deutschland
!!!SCT: F0971
!!!TXL: @@DE
!!!YEM: Copyright 1995, estate of Helmut Schaffrath.
**kern	**text
*ICvox	*
*M3/8	*
*k[f#c#g#d#]	*
*E:	*
!LO:TX:a:t=Allegretto.	!
{16g#	1._Auf
16a	dem
=1	=1
8b/	Ra-
8g#	-ſen
8cc#/	im
=2	=2
8b/	Wal-
8g#}	-de,
{8b/	da
=3	=3
8cc#/	lieg'
8ee/	ich
8cc#/	ſo
=4	=4
4b/}	gern,
{16g#	auf
16a	der
=5	=5
8b/	ſchat-
8g#	-ti-
8cc#/	-gen
=6	=6
8b/	Hal-
8g#}	-de,
{8e	dem
=7	=7
8cc#/	Bäch-
8a	-lein
8g#	nicht
=8	=8
4f#}	ſern!
{16f#	wenn
16g#	es
=9	=9
8.aL	o-
16bJ	-ben
16cc#/	im
16dd#/	.
=10	=10
8ee/'	Lau-
8b/'}	-be
{8g#	recht
=11	=11
8.cc#/^	ſchau-
16b/	-er-
8a	-lich
=12	=12
8b/	rauſcht,
8r}	.
{16e	wenn
16e	ge-
=13	=13
8f#'	-rü-
8f#'	-ſtet
8g#'	ʒum
=14	=14
16aL	Raube,
16bJ	.
8cc#/	.
16r}	.
{16b/	der
=15	=15
8a'	U-
8f#'	-hu
8b/'	ſchon
=16	=16
8g#	lauſcht
8r}	.
{16e	wenn
16e	ge-
=17	=17
8f#'	-rüſtet
8f#'	.
8g#'	ʒum
=18	=18
16a/L	Rau-
16cc#J	.
8ee/	-be,
16r}	.
{16cc#/	der
=19	=19
8b'	U-
8g#'	-bu
16f#L	ſchon
16bJ	.
=20	=20
4e}	lauſcht!
==	==
!!!AGN: Natur - Lied, Wald
!!!ONB: ESAC (Essen Associative Code) Database: FINK
!!!AMT: simple triple
!!!AIN: vox
!!!EED: Helmut Schaffrath
!!!EEV: 1.0
!!!GTL: Lieder um Preise der Natur.
!!!source: Musikalischer Hausschatz der Deutschen. Eine Sammlung von über 1000 Liedern und Gesängen mit Singstimmen und Klavierbegleitung. Leipzig, Litterarisches Verlags-Haus.
!!!page: 733
!!!ENC: Anna Maria Matuszewska
!!!EEV: 2025/03/20
*-	*-
